X: 333
T: The Honble. Miss H Elliiot's Dance
N: Did her last name really have two 'i's?
B: John Pringle "Collection of Reels Strathspeys & Jigs", 1801 p.33#3
Z: 2011 John Chambers <jc:trillian.mit.edu>
Q: "Slowish"
R: reel
M: 2/4
L: 1/16
K: G
V: 1
(Bc) |\
.d2(dc) .B2(BA) | .G2(GA) (BA).B.G | .c2(cB) .A2(AG) | F2FE (FE)D2 |\
G2(Bd) (dc)AF | G2Bd D4 | G2Bd dcAF | G4 HG2 :|
|: B2 |\
[e2B2] e4 e2 | ^d2(d^c) (dcB2) | [e2B2] e4 g2 | {g}f2fe fefd |\
[g2B2] [g4B4] b2 | {b}a2ag agfa | gfeg fe^df | (efgf) !D.C.!e2 :|
V: 2 clef=bass middle=d
z2 |\
G2g2 G2g2 | G2g2 G2g2 | d2c'2 d2^c'2 | d2d'2 d2d'2 |\
g2b2 B2d'2 | g2b2 d2D2 | g2b2 d'2d2 | g2d2 HG2 :|
|: z2 |\
e2e'2 e2e'2 | B2b2 B2b2 | e2e'2 e2e'2 | d2d'2 d2d'2 |\
G2B2 d2g2 | f6 ^d2 | e2g2 b2B2 | e2B2 E2 :|

%%sep 2 1 500

